X: 5
T: Allistrum's March
R: jig
M: 6/8
L: 1/8
K: Gmaj
|:d/c/|Bgg baa|bgg ged|Bgg baa|bgg e2d|
Bgg baa|bgg ged|Bgg baa|bgg e2d||
|:BAA BGG|BAg ged|BAA BGG|BAg e2d|
BAA BGG|BAg ged|BAA BGG|BAg e2d||
|:g2b a2b|g2a ged|ggb aab|ged e2d|
g2b a2b|g2a ged|ggb aab|ged e2d||
|:e2d e2B|e2d edB|e2d e2B|e/f/ge fdB|
e2d e2B|e2d edB|e2d e2B|e/f/ge fdB||


Tune 2136	Setting 15518

